X:13015
T:Miss McLeod's Reel
R:Reel
C:Trad. O'Neills 1850
O:Ireland
M:4/4
L:1/8
Q:1/8=260
K:G
BA|:"G"G2BG DGBG|B2BA BcBA|G2BG DGBG|"D"A2AG "Am"AcBA|
"G"G2BG DGBG|B2BA B2d2|"Em"e3f edef|"G"gedB "Am"AcBA:|
|:"G"G2gf "Em"edeg|"G"B2BA BcBA|G2gf "Em"edeg|"D"a2ag "Am"ac'ba|
"G"g2gf "Em"edeg|"G"BcBA B2d2|"Em"edcB "C"cdef|"G"gedB "G"A2G2:|

